X: 15
T: Missa L'homme arm\'e / Agnus Dei
N: Derived from Duf1004e-Missa_Lhomme_arme-Agnus.krn
C: Guillaume Du Fay
%%abc-version 2.0
%%abcx-abcm2ps-target-version 5.9.1 (29 Sep 2008)
%%abc-creator hum2abc beta
%%abcx-conversion-date 2019/02/16 20:31:46
%%abc-edited-by Jesse Rodin
%%abc-edited-by Planchart/Rodin
%%abcx-initial-encoding-date 2013/12/07/
%%humdrum-veritas 643316660
%%humdrum-veritas-data 4020191370
%%linebreak <none>
%%barnumbers 0
L: 1/4
M: 3/1
Q: 1/2=120
%%staves [1 2 3 4]
V: 1 clef=treble
V: 2 clef=treble-8
V: 3 clef=treble-8
V: 4 clef=bass
K: F
[V:1] G6A2=B4 | 
[V:2] G8G4 | 
[V:3] z12 | 
[V:4] z12 | 
[V:1] c4=B2d4c2 | 
[V:2] A4G8 | 
[V:3] z12 | 
[V:4] z12 | 
[V:1] =B2G2A4B3G | 
[V:2] G4F4G4 | 
[V:3] z12 | 
[V:4] z12 | 
[V:1] G6^F2F2E2 | 
[V:2] B4A8 | 
[V:3] z12 | 
[V:4] z12 | 
[V:1] G12 | 
[V:2] G4z4z4 | 
[V:3] G8G4 | 
[V:4] z4D8 | 
[V:1] z4z4c4 | 
[V:2] g12 | 
[V:3] c8c4 | 
[V:4] E8E4 | 
[V:1] d4e2e3dc2 | 
[V:2] g4a3ge2f2 | 
[V:3] B4A8 | 
[V:4] D4C8 | 
[V:1] =B4A4d4- | 
[V:2] g4f4a4 | 
[V:3] G4z4z4 | 
[V:4] D8D4 | 
[V:1] d2=B4A2B2c2 | 
[V:2] g8g4 | 
[V:3] d4d4G4 | 
[V:4] G,6F,2E,4 | 
[V:1] d8d2c2 | 
[V:2] a12 | 
[V:3] z4d4d4 | 
[V:4] D,12- | 
[V:1] A6G2A4 | 
[V:2] f12 | 
[V:3] d4c8 | 
[V:4] D,4F,8 | 
[V:1] B2G4^F2F2E2 | 
[V:2] d12 | 
[V:3] B4A8 | 
[V:4] G,4D,8 | 
[V:1] G12 | 
[V:2] z12 | 
[V:3] G12 | 
[V:4] D4D4D4 | 
[V:1] z12 | 
[V:2] g8g2f2 | 
[V:3] d4d4d4 | 
[V:4] G,12 | 
[V:1] G6F2D4 | 
[V:2] d8B4- | 
[V:3] B4G8 | 
[V:4] G,4z4z4 | 
[V:1] _E4D8 | 
[V:2] B4A8 | 
[V:3] z12 | 
[V:4] G,4D,8 | 
[V:1] C12 | 
[V:2] G8G4 | 
[V:3] g8g4 | 
[V:4] _E,12 | 
[V:1] D8D4 | 
[V:2] A4B6A2 | 
[V:3] f8f4 | 
[V:4] D,12 | 
[V:1] E6C2C4 | 
[V:2] c6G4A2 | 
[V:3] g8g4 | 
[V:4] C,8E,2F,2 | 
[V:1] G4F4A4 | 
[V:2] B4A4z2d2- | 
[V:3] d12 | 
[V:4] G,4D,8 | 
[V:1] G2B4c2A4 | 
[V:2] d2e2d2e2f4 | 
[V:3] z12 | 
[V:4] G,8F,4 | 
[V:1] G4z4z4 | 
[V:2] (3:2:6d4_e4d4-d2_e2d2- | 
[V:3] g8g4 | 
[V:4] (3:2:5G,4C4B,4G,4B,2- | 
[V:1] z12 | 
[V:2] (3:2:8d Bc2d2B4A2d4c2 | 
[V:3] f8f4 | 
[V:4] (3:2:6B,2A,4D4C2B,2A,4 | 
[V:1] =B3cd2e2c3B | 
[V:2] d4B4c4 | 
[V:3] g8e4 | 
[V:4] G,8A,4 | 
[V:1] d4A4d4- | 
[V:2] A2z2f3ga4 | 
[V:3] d12 | 
[V:4] D,12 | 
[V:1] d2c2=B2A2B4 | 
[V:2] d2g4f2e3d | 
[V:3] z4z4g4 | 
[V:4] G,12 | 
[V:1] c8=B4 | 
[V:2] f8d4- | 
[V:3] a8g4 | 
[V:4] F,8G,4 | 
[V:1] A4G8 | 
[V:2] d4=B4c4 | 
[V:3] f4e8 | 
[V:4] D,4E,4C,4 | 
[V:1] F8G4 | 
[V:2] A8B4 | 
[V:3] d12 | 
[V:4] D,8G,4 | 
[V:1] A4D4z4 | 
[V:2] A4B4G2z2 | 
[V:3] z12 | 
[V:4] F,4G,8 | 
[V:1] G4=B3cd4 | 
[V:2] (3:2:2d8d4g4- | 
[V:3] G8G4 | 
[V:4] z12 | 
[V:1] e2c4=B2A4 | 
[V:2] g2g2(3f4e6d2 | 
[V:3] c8c4 | 
[V:4] z12 | 
[V:1] G4z2c4A2 | 
[V:2] d4a8 | 
[V:3] B4A8 | 
[V:4] G,4F,8 | 
[V:1] =B4G4A4 | 
[V:2] d4c2B2d4 | 
[V:3] G4z4z4 | 
[V:4] G,4E,4D,4 | 
[V:1] G2G4FED4 | 
[V:2] G4B3cd4 | 
[V:3] d4d4G4 | 
[V:4] z4G,4B,3C | 
[V:1] z2G4B4c2 | 
[V:2] G4g8 | 
[V:3] z4d4d4 | 
[V:4] D4G,6A,2 | 
[V:1] d2B2c2A3GA2 | 
[V:2] f8f4 | 
[V:3] d4c8 | 
[V:4] B,4F,8 | 
[V:1] B2G2A2^F3GFE | 
[V:2] d8d4 | 
[V:3] B4A8 | 
[V:4] G,4D,8 | 
[V:1] G12 ||  
[V:2] B3cd8 ||  
[V:3] G12 ||  
[V:4] G,12 ||  
[V:1]  [K:F] [K:clef=treble][M:4/2]G8 | 
[V:2]  [K:F] [K:clef=treble-8][M:4/2]z8 | 
[V:3]  [K:F] [K:clef=treble-8][M:4/2]z8 | 
[V:4]  [K:F] [K:clef=bass][M:4/2]z8 | 
[V:1] (3d8c2B2 | 
[V:2] G8 | 
[V:3] z8 | 
[V:4] z8 | 
[V:1] A8 | 
[V:2] (3d8c2B2 | 
[V:3] z8 | 
[V:4] z8 | 
[V:1] F6G2 | 
[V:2] A8 | 
[V:3] z8 | 
[V:4] z8 | 
[V:1] A4B4 | 
[V:2] F6G2 | 
[V:3] z8 | 
[V:4] z8 | 
[V:1] A4d4 | 
[V:2] A4B4 | 
[V:3] z8 | 
[V:4] z8 | 
[V:1] c2A2B2A2- | 
[V:2] A4d4 | 
[V:3] z8 | 
[V:4] z8 | 
[V:1] A2F2G3F | 
[V:2] c2A2B4 | 
[V:3] z8 | 
[V:4] z8 | 
[V:1] A4z4 | 
[V:2] A4f4 | 
[V:3] z8 | 
[V:4] z8 | 
[V:1] G4A2F2- | 
[V:2] e4d4 | 
[V:3] z8 | 
[V:4] z8 | 
[V:1] F2D2E4 | 
[V:2] z4g4 | 
[V:3] z8 | 
[V:4] z8 | 
[V:1] D4z4 | 
[V:2] f2a3gf2 | 
[V:3] z8 | 
[V:4] z8 | 
[V:1] G4F2A2 | 
[V:2] e4d4- | 
[V:3] z8 | 
[V:4] z8 | 
[V:1] BAGFE4 | 
[V:2] d4^c4 | 
[V:3] z8 | 
[V:4] z8 | 
[V:1] F4D4 | 
[V:2] d4z4 | 
[V:3] z8 | 
[V:4] z8 | 
[V:1] z2G2F2G2 | 
[V:2] G4B4 | 
[V:3] z8 | 
[V:4] z8 | 
[V:1] A4G2d2- | 
[V:2] A2c4B2 | 
[V:3] z8 | 
[V:4] z8 | 
[V:1] dcB2A2c2- | 
[V:2] G4F4 | 
[V:3] z8 | 
[V:4] z8 | 
[V:1] cBA2G4 | 
[V:2] c4B2c2- | 
[V:3] z8 | 
[V:4] z8 | 
[V:1] A2G2E2F2 | 
[V:2] c2G2A4 | 
[V:3] z8 | 
[V:4] z8 | 
[V:1] (3:2:5G4A2G2F2E2 | 
[V:2] G8 | 
[V:3] z8 | 
[V:4] z8 | 
[V:1] D2G4A2 | 
[V:2] z4G4- | 
[V:3] z8 | 
[V:4] z8 | 
[V:1] B4G4 | 
[V:2] G8 | 
[V:3] z8 | 
[V:4] z8 | 
[V:1] z4G4 | 
[V:2] c8 | 
[V:3] z8 | 
[V:4] z8 | 
[V:1] A4D4 | 
[V:2] c4B4 | 
[V:3] z8 | 
[V:4] z8 | 
[V:1] E2F4E2 | 
[V:2] A8 | 
[V:3] z8 | 
[V:4] z8 | 
[V:1] G4B4 | 
[V:2] G8 | 
[V:3] z8 | 
[V:4] z8 | 
[V:1] A4d4 | 
[V:2] d8 | 
[V:3] z8 | 
[V:4] z8 | 
[V:1] z4G4 | 
[V:2] G8 | 
[V:3] z8 | 
[V:4] z8 | 
[V:1] A2F3GA2 | 
[V:2] d8 | 
[V:3] z8 | 
[V:4] z8 | 
[V:1] B2A4GF | 
[V:2] d4c4- | 
[V:3] z8 | 
[V:4] z8 | 
[V:1] E2D2G2FG | 
[V:2] c2G2B4 | 
[V:3] z8 | 
[V:4] z8 | 
[V:1] A2E2^F3E | 
[V:2] A8 | 
[V:3] z8 | 
[V:4] z8 | 
[V:1] G8 | 
[V:2] G4z4 | 
[V:3] z8 | 
[V:4] z8 | 
[V:1] z8 | 
[V:2] (3d6e2f4 | 
[V:3] z8 | 
[V:4] (3:2:2D,8D,4 | 
[V:1] z8 | 
[V:2] (3d4g6f2 | 
[V:3] z8 | 
[V:4] (3:2:2G,8G,4 | 
[V:1] z8 | 
[V:2] (3:2:2d8c4 | 
[V:3] z8 | 
[V:4] (3:2:2F,4E,8 | 
[V:1] z8 | 
[V:2] (3d6c2A4 | 
[V:3] z8 | 
[V:4] D,8 | 
[V:1] z8 | 
[V:2] (3z4c4d4 | 
[V:3] z8 | 
[V:4] (3:2:2A,8D,4 | 
[V:1] z8 | 
[V:2] (3:2:4f4e2a4g2 | 
[V:3] z8 | 
[V:4] (3:2:2z4A,8- | 
[V:1] z8 | 
[V:2] (3f4e6d2 | 
[V:3] z8 | 
[V:4] (3:2:2A,4G,8 | 
[V:1] z8 | 
[V:2] (3:2:4d6^c2^c2=B2 | 
[V:3] z8 | 
[V:4] (3:2:2F,4E,8 | 
[V:1] z8 | 
[V:2] d8- | 
[V:3] z8 | 
[V:4] D,8 | 
[V:1] G8 | 
[V:2] d8 | 
[V:3] z8 | 
[V:4] G,8 | 
[V:1] A8 | 
[V:2] z8 | 
[V:3] z8 | 
[V:4] F,8 | 
[V:1] B8 | 
[V:2] g8 | 
[V:3] z8 | 
[V:4] G,8 | 
[V:1] A8 | 
[V:2] f8 | 
[V:3] z8 | 
[V:4] D,8 | 
[V:1] G4d4- | 
[V:2] g8 | 
[V:3] z8 | 
[V:4] z8 | 
[V:1] d2c2B4 | 
[V:2] d8 | 
[V:3] z8 | 
[V:4] G,8 | 
[V:1] A8 | 
[V:2] z8 | 
[V:3] z8 | 
[V:4] F,8 | 
[V:1] B4G4 | 
[V:2] g8 | 
[V:3] z8 | 
[V:4] (3G,8F,2E,2 | 
[V:1] A8 | 
[V:2] f8 | 
[V:3] z8 | 
[V:4] D,8 | 
[V:1] B4G4 | 
[V:2] (3g8f2e2 | 
[V:3] z8 | 
[V:4] z8 | 
[V:1] z4G4- | 
[V:2] d8 | 
[V:3] z8 | 
[V:4] G,8 | 
[V:1] G2F2E2D2 | 
[V:2] z4g4 | 
[V:3] z8 | 
[V:4] E,8 | 
[V:1] C4F4 | 
[V:2] a8 | 
[V:3] z8 | 
[V:4] F,8 | 
[V:1] E2D2D4- | 
[V:2] g4f4 | 
[V:3] z8 | 
[V:4] G,4D,4 | 
[V:1] D4^C4 | 
[V:2] e8 | 
[V:3] z8 | 
[V:4] A,8 | 
[V:1] D4z4 | 
[V:2] d8 | 
[V:3] z8 | 
[V:4] D,8 | 
[V:1] (3:2:2D8D4 | 
[V:2] z8 | 
[V:3] z8 | 
[V:4] G,8 | 
[V:1] (3:2:2G8G4 | 
[V:2] (3:2:2G8G4 | 
[V:3] z8 | 
[V:4] B,8 | 
[V:1] (3F4E6D2 | 
[V:2] (3:2:2c8c4 | 
[V:3] z8 | 
[V:4] A,8 | 
[V:1] (3D4E4F4 | 
[V:2] (3:2:2B4A8 | 
[V:3] z8 | 
[V:4] z4C4 | 
[V:1] G4(3:2:2D2G4 | 
[V:2] G8 | 
[V:3] z8 | 
[V:4] B,4D4 | 
[V:1] (3:2:4A4F4G2z2 | 
[V:2] (3:2:2d8G4 | 
[V:3] z8 | 
[V:4] (3:2:2D,8E,4 | 
[V:1] (3:2:4B4A2d4c2 | 
[V:2] (3:2:2z4d8- | 
[V:3] z8 | 
[V:4] (3G,4F,4G,4 | 
[V:1] (3B4A6G2 | 
[V:2] (3:2:2d4c8 | 
[V:3] z8 | 
[V:4] (3z4A,4F,4 | 
[V:1] (3:2:2G8^F4 | 
[V:2] (3:2:2B4A8 | 
[V:3] z8 | 
[V:4] (3:2:2G,4D,8 | 
[V:1] G8 ||  
[V:2] G8 ||  
[V:3] z8 ||  
[V:4] D8 ||  
[V:1]  [K:F] [K:clef=treble][M:3/1]D4E4D4 | 
[V:2]  [K:F] [K:clef=treble-8][M:3/1]z4z4d4 | 
[V:3]  [K:F] [K:clef=treble-8][M:3/1]G12- | 
[V:4]  [K:F] [K:clef=bass][M:3/1]z12 | 
[V:1] G6A2=B4 | 
[V:2] e4d4g4 | 
[V:3] G12 | 
[V:4] z12 | 
[V:1] c4A4G4 | 
[V:2] c2f4e2d4 | 
[V:3] A8B4 | 
[V:4] F,8G,4 | 
[V:1] z2c4A2=B2c2 | 
[V:2] f6e2g4 | 
[V:3] c8d4 | 
[V:4] A,8G,4- | 
[V:1] d6c2A4 | 
[V:2] z4a4f4 | 
[V:3] d4d4z4 | 
[V:4] G,4D,8 | 
[V:1] z2G2F2A2B2G2- | 
[V:2] g4a2f2g3f/e/ | 
[V:3] G4d4d4 | 
[V:4] E,4D,4G,4 | 
[V:1] G2FED4B4 | 
[V:2] d4G4g4 | 
[V:3] z4z4G4 | 
[V:4] G,4B,2C2D4 | 
[V:1] A2A4G2F4 | 
[V:2] e2f2e4d4 | 
[V:3] A8B4 | 
[V:4] C8D4 | 
[V:1] E8E4 | 
[V:2] z2a4a2a4 | 
[V:3] c4c8 | 
[V:4] A,12 | 
[V:1] D4z4G4 | 
[V:2] g2g4f2d4 | 
[V:3] G4G8 | 
[V:4] B,12 | 
[V:1] A2A4G2E2F2 | 
[V:2] e4c6B2 | 
[V:3] z12 | 
[V:4] A,12 | 
[V:1] G4D4G4 | 
[V:2] d4B8 | 
[V:3] z12 | 
[V:4] G,12 | 
[V:1] F6G2A4- | 
[V:2] A8z4 | 
[V:3] d12- | 
[V:4] D,12 | 
[V:1] A2d4c2=B3A | 
[V:2] a6f6 | 
[V:3] d12 | 
[V:4] z4z4D4 | 
[V:1] c4z4c4 | 
[V:2] g8c4 | 
[V:3] e8f4 | 
[V:4] C6B,2A,4 | 
[V:1] =B4A2c4c2 | 
[V:2] d2e2f8 | 
[V:3] g4a8 | 
[V:4] G,4F,4F,4 | 
[V:1] =B2c2d4B4 | 
[V:2] d4g8 | 
[V:3] g4z4d4 | 
[V:4] G,8G,4 | 
[V:1] z2c4d2e4 | 
[V:2] g4e8 | 
[V:3] e4g8 | 
[V:4] C6B,2C4 | 
[V:1] d8c4 | 
[V:2] z4a8 | 
[V:3] f4f8 | 
[V:4] D2D4CB,A,4 | 
[V:1] =B2d4c2B2G2 | 
[V:2] d6e2d2cB | 
[V:3] g4g8 | 
[V:4] G,8G,4 | 
[V:1] A4G4F3E/D/ | 
[V:2] A4B4A4 | 
[V:3] z4d8 | 
[V:4] F,4G,4D,4 | 
[V:1] C8z4 | 
[V:2] z4G6F2 | 
[V:3] g4g8 | 
[V:4] _E,12 | 
[V:1] D12 | 
[V:2] A6B4A2 | 
[V:3] f4f8 | 
[V:4] D,12 | 
[V:1] _E12 | 
[V:2] c4G4c4 | 
[V:3] g4g8 | 
[V:4] C,12 | 
[V:1] D8G4- | 
[V:2] B6c2d4 | 
[V:3] z12 | 
[V:4] G,12 | 
[V:1] G2F2D4G4 | 
[V:2] d4g3fd4 | 
[V:3] G12 | 
[V:4] z4z4G,4 | 
[V:1] B4A4G2d2- | 
[V:2] z2G2A4B2G2 | 
[V:3] d4d4d4 | 
[V:4] G,4F,4G,4 | 
[V:1] d2B4c2d3c | 
[V:2] g4f2g2d2e2 | 
[V:3] G12 | 
[V:4] G,2D4C2B,3A,/G,/ | 
[V:1] A4G4z2B2 | 
[V:2] f4e2d4d2 | 
[V:3] A4B8 | 
[V:4] F,4G,8 | 
[V:1] A2F2G4F2A2- | 
[V:2] c2BAG4A4 | 
[V:3] c8d4 | 
[V:4] A,4E,4D,4 | 
[V:1] A2B2G2B2A4 | 
[V:2] F4z2G2A2B2 | 
[V:3] d4d4z4 | 
[V:4] z4G,4D,4 | 
[V:1] G2z2F2G2B2A2 | 
[V:2] c4dcB2G2A2 | 
[V:3] G4d4d4 | 
[V:4] E,4D,2G,4F,2 | 
[V:1] B2G4d4G2 | 
[V:2] G2d4d2z2B2- | 
[V:3] z4G8- | 
[V:4] G,4z4D4- | 
[V:1] B2A2G2FED4 | 
[V:2] B2c2d4G4 | 
[V:3] G12 | 
[V:4] D4B,8 | 
[V:1] z4A4G4- | 
[V:2] F8G4 | 
[V:3] A8B4 | 
[V:4] C6D6 | 
[V:1] G4c8 | 
[V:2] z4!tenuto!g8 | 
[V:3] c4c8 | 
[V:4] E6E6 | 
[V:1] =B6c2d4 | 
[V:2] g6f2d4 | 
[V:3] G12- | 
[V:4] D8B,2C2 | 
[V:1] d4=B6G2 | 
[V:2] z2g4f2g2e2 | 
[V:3] G12 | 
[V:4] D12 | 
[V:1] G6 :
[V:2] d4z2 :
[V:3] G6- | 
[V:4] z4z2 :
[V:1] F2D4 [I:setbarnb 148]| 
[V:2] x2g4 | 
[V:3] G6 | 
[V:4] x2G,4 | 
[V:1] z4z2 :
[V:2] a3ge2 :
[V:3] c4c2 | 
[V:4] F,2A,4 :
[V:1] x2A4 [I:setbarnb 149]| 
[V:2] g2^f3e | 
[V:3] B2A4 | 
[V:4] D2C4 | 
[V:1] =B2c2d2- :
[V:2] g4z2 :
[V:3] G6- | 
[V:4] D4B,2- :
[V:1] d2B2G2 [I:setbarnb 150]| 
[V:2] d3cB2 | 
[V:3] G4z2 | 
[V:4] B,2G,4 | 
[V:1] z2F2G2 :
[V:2] A3Bc2 :
[V:3] d2d2G2 | 
[V:4] D,4E,2 :
[V:1] A4B2- [I:setbarnb 151]| 
[V:2] d2A2G2 | 
[V:3] z2d2d2 | 
[V:4] D,4G,2- | 
[V:1] B2A3G :
[V:2] g2e2f2 :
[V:3] d2c4 | 
[V:4] G,2A,2F,2 :
[V:1] G4F2 [I:setbarnb 152]| 
[V:2] d6 | 
[V:3] B2A4 | 
[V:4] G,2D,4 | 
[V:1] G3FG2 :
[V:2] B3AG2- :
[V:3] G6 | 
[V:4] z2E,4- :
[V:1] A2^F3E [I:setbarnb 153]| 
[V:2] GFA4 | 
[V:3] d2d2d2 | 
[V:4] E,2D,4 | 
[V:1] G4z2 :
[V:2] B4G2- :
[V:3] G6 | 
[V:4] z2D4 :
[V:1] x2G2F2 [I:setbarnb 154]| 
[V:2] G4B2- | 
[V:3] z6 | 
[V:4] D2D4 | 
[V:1] D6- :
[V:2] B2G2B2- :
[V:3] g4g2 | 
[V:4] G,6 :
[V:1] D6- [I:setbarnb 155]| 
[V:2] B2A4 | 
[V:3] f4f2 | 
[V:4] D,6 | 
[V:1] D4G2- :
[V:2] B6- :
[V:3] g4g2 | 
[V:4] z2G,4- :
[V:1] G2F2A2 [I:setbarnb 156]| 
[V:2] B2A4 | 
[V:3] d4z2 | 
[V:4] G,2D,4 | 
[V:1] D6- :
[V:2] G4z2 :
[V:3] g4g2 | 
[V:4] B,2G,2B,2- :
[V:1] D2A4 [I:setbarnb 157]| 
[V:2] x2c4 | 
[V:3] f4f2 | 
[V:4] B,2A,4 | 
[V:1] B4G2- :
[V:2] d4B2- :
[V:3] g4e2 | 
[V:4] G,6- :
[V:1] G2d4 [I:setbarnb 158]| 
[V:2] Bcd4 | 
[V:3] d2z2g2 | 
[V:4] G,2B,4 | 
[V:1] c2e3d :
[V:2] f2e4 :
[V:3] a4g2 | 
[V:4] A,3B,C2 :
[V:1] d4^c2 [I:setbarnb 159]| 
[V:2] a6 | 
[V:3] f2e4 | 
[V:4] D2A,4 | 
[V:1] d4z2 :
[V:2] a4f2- :
[V:3] d6- | 
[V:4] D,6- :
[V:1] x2A4 [I:setbarnb 160]| 
[V:2] f2z2d2- | 
[V:3] d6 | 
[V:4] D,2D,4 | 
[V:1] =B2G2A2- :
[V:2] d2e2f2- :
[V:3] z6 | 
[V:4] G,4F,2- :
[V:1] A2G4 [I:setbarnb 161]| 
[V:2] f2d4 | 
[V:3] z6 | 
[V:4] F,2G,4 | 
[V:1] =B3cd2 :
[V:2] g6- :
[V:3] G4G2 | 
[V:4] z2D4 :
[V:1] e4c2 [I:setbarnb 162]| 
[V:2] g2a4 | 
[V:3] c4c2 | 
[V:4] C2A,4 | 
[V:1] d2c2A2 :
[V:2] d2f2e2 :
[V:3] B2A4 | 
[V:4] G,2A,2C2 :
[V:1] z2B2A2 [I:setbarnb 163]| 
[V:2] g4f2 | 
[V:3] G2z2z2 | 
[V:4] B,2D4 | 
[V:1] B2G4 :
[V:2] g2z2c2 :
[V:3] d2d2G2 | 
[V:4] G,3F,E,2 :
[V:1] F4G2- [I:setbarnb 164]| 
[V:2] d2B2G2 | 
[V:3] z2d2d2 | 
[V:4] D,2z2B,2- | 
[V:1] G2A3G :
[V:2] d2e2f2 :
[V:3] d2c4 | 
[V:4] B,2A,2F,2 :
[V:1] G4^F2 [I:setbarnb 165]| 
[V:2] d6 | 
[V:3] B2A4 | 
[V:4] G,2D,4 | 
[V:1] G12 |]  
[V:2] d4B2c2d4 |]  
[V:3] G12 |]  
[V:4] G,12 |]  



